X:42
T:Concerto Grosso Op.6 No.8 - Pastorale
C:Corelli, A.
M:12/8
L:1/8
Q:3/8=52
K:G
|:D3|G3 ABc d3 BcA|G3 FGA B3 GFG|A3 GAB c3 BAG|D6 z3 D3|
G3 Bcd e3 def|g3 fed e3 cde|dcB cBA GFE FGA|G6 z3:|

